!!!!SEGMENT: pl-kk--kk-i-385--008_anonim--sub-tuum-praesidium.krn
!!!cenid: 17xx:1988
!!!COM: Anonim
!!!COM-rismid: pe30004985
!!!CDT:
!!!CNT:
!!!OTL: Sub tuum praesidium
!!!PDT:
!!!AGN: Sacred
!!!SMS-siglum: PL-Kk
!!!SMS-shelfmark: Kk.I.385
!!!SMS-shelfwork: 008 W
!!!SMS-variant:
!!!SMS-altvar:
!!!NIFC-rismid: 1001143570
!!!URL-scan: http://repozytorium.nifc.pl/skany/pl-kk-nut--i-385
!!!ONB-nifc: UWAGA: obsada: S, A, T; S: skan 0005; A: skan 0012; T: skan 0019
**kern	**text	**kern	**text	**kern	**text
*part3	*part3	*part2	*part2	*part1	*part1
*staff3	*staff3	*staff2	*staff2	*staff1	*staff1
*Itenor	*	*Ialto	*	*Isoprn	*
*I"Tenore.	*	*I"Alto.	*	*I"Soprano.	*
*I'T	*	*I'A	*	*I'S	*
*clefC4	*	*clefC3	*	*clefC1	*
*k[]	*	*k[]	*	*k[]	*
*a:	*	*a:	*	*a:	*
*M2/2	*	*M2/2	*	*M2/2	*
*met(C|.)	*	*met(C|.)	*	*met(C|.)	*
=1	=1	=1	=1	=1	=1
!LO:TX:a:i:t=Sub tuum presidium.	!	!	!	!	!
!LO:TX:a:i:t=Tenore	!	!	!	!LO:TX:a:i:t=Sub tuum presidium.	!
!LO:TX:a:t=2	!	!LO:TX:i:a:t=Sub tuum presidium.	!	!LO:TX:a:i:t=Soprano.	!
!LO:TX:i:a:t=in A.♮.	!	!LO:TX:a:i:t=Alto.	!	!LO:TX:t=P:problem:brak Basso?	!
!LO:TX:t=P:problem:all\right:global	!	!LO:TX:t=P:problem:all\right:global	!	!LO:TX:t=P:problem:all\right:global	!
!LO:TX:Bi:a:t=8.my.	!	!LO:TX:Bi:a:t=8.vuno	!	!LO:TX:Bi:a:t=8.	!
!LO:N:vis=0	!	!LO:N:vis=00	!	!LO:N:vis=00	!
0r	.	00r	.	00r	.
=2	=2	=2	=2	=2	=2
.	.	.	.	.	.
=3	=3	=3	=3	=3	=3
!LO:TX:t=P:problem:1.	!	!	!	!	!
[y1A	Sub	.	.	.	.
=4	=4	=4	=4	=4	=4
!LO:N:vis=xstem:cue	!	!	!	!	!
2A\]y	.	.	.	.	.
*2\right	*	*	*	*	*
2A\	tu-	.	.	.	.
=5	=5	=5	=5	=5	=5
!	!	!LO:TX:t=P:problem:1.	!	!LO:N:vis=0	!
2G#X/	-um	[y1e	Sub	0r	.
2E/	pre-	.	.	.	.
=6	=6	=6	=6	=6	=6
!	!	!LO:N:vis=xstem:cue	!	!	!
2.A\	-si-	2e\]y	.	.	.
*	*	*2\right	*	*	*
.	.	2e\	tu-	.	.
4A\	-di-	.	.	.	.
=7	=7	=7	=7	=7	=7
!	!	!	!	!LO:TX:t=P:problem:1.	!
2A\	-um	2c\	-um	[y1a	Sub
2c\	pre-	2A/	pre-	.	.
=8	=8	=8	=8	=8	=8
!	!	!	!	!LO:N:vis=xstem:cue	!
2.d\	-si-	2.fn\	-si-	2a\]y	.
*	*	*	*	*2\right	*
.	.	.	.	2a\	tu-
4d\	-di-	4f\	-di-	.	.
=9	=9	=9	=9	=9	=9
1B	-um	1e	-um	2g#X\	-um
.	.	.	.	2e/	pre-
=10	=10	=10	=10	=10	=10
2.e\	con-	1g#X	pre-	1b	-si-
4d\	.	.	.	.	.
=11	=11	=11	=11	=11	=11
4c\	.	2.a\	.	2.cc\	.
4B\	.	.	.	.	.
!LO:LB:g=original	!	!	!	!	!
2A\	.	.	.	.	.
.	.	4gn\	.	4b\	-di-
=12	=12	=12	=12	=12	=12
2d\	.	4f\	-si-	2a\	-um
.	.	4e\	.	.	.
!LO:TX:t=P:problem:2.	!	!	!	!LO:TX:t=P:problem:2.	!
[y2c\	-fu-	4f\	.	[y2ee\	con-
.	.	4d\	-di-	.	.
=13	=13	=13	=13	=13	=13
!LO:N:vis=xstem:cue	!	!	!	!LO:N:vis=xstem:cue	!
4c\]y	.	2c\	-um	4ee\]y	.
4B\	-gi-	.	.	4dd\	.
!	!	!LO:LB:g=original	!	!	!
!	!	!LO:TX:t=P:problem:2.	!	!	!
2A\	-mus	[y2a\	con-	4cc\	.
.	.	.	.	4b\	.
=14	=14	=14	=14	=14	=14
!	!	!LO:N:vis=xstem:cue	!	!	!
2.d\	con-	4a\]y	.	2a\	.
.	.	4g\	.	.	.
.	.	4f\	.	2dd\	.
4c\	.	4e\	.	.	.
!	!	!	!	!LO:LB:g=original	!
=15	=15	=15	=15	=15	=15
4B\	.	2.d\	-fu-	4dd\	.
4A\	.	.	.	4cc\	.
4G\	.	.	.	4b\	.
!	!	!LO:SIC:l:v:s=gi	!	!	!
4A\	.	4d\	-i-	4a\	.
=16	=16	=16	=16	=16	=16
4B\	.	2e\	-mus	4g#X/	.
4c\	.	.	.	4e/	.
2d\	.	4A/	con-	4f#X/	.
.	.	4B/	.	4g#/	.
=17	=17	=17	=17	=17	=17
4A\	.	4c\	.	4a\	.
4G#X/	.	4d\	.	4b\	.
4c\	.	4e\	.	4cc\	.
4B\	.	4f\	.	4dd\	.
=18	=18	=18	=18	=18	=18
2A/	-fu-	2.e\	-fu-	2cc\	.
2G#X/	-gi-	.	.	4b\	-fu-
!	!	!LO:SIC:l:v:s=gi	!	!	!
.	.	4e\	-i-	4b\	-gi-
!LO:LB:g=original	!	!	!	!	!
=19	=19	=19	=19	=19	=19
2A\	-mus	1e	-mus	2a\	-mus
!	!	!	!	!LO:TX:t=P:problem:2.	!
2r	.	.	.	[y2ee\	Sanc-
=20	=20	=20	=20	=20	=20
!	!	!	!	!LO:N:vis=xstem:cue	!
1r	.	2r	.	4ee\]y	.
.	.	.	.	4dd\	-ta
!	!	!LO:TX:t=P:problem:2.	!	!	!
.	.	[y2a\	san-	2cc\	De-
=21	=21	=21	=21	=21	=21
!	!	!LO:N:vis=xstem:cue	!	!	!
2r	.	4a\]y	.	2a\	-i
.	.	4g\	-cta	.	.
!LO:TX:t=P:problem:2.	!	!	!	!	!
[y2A\	San-	4f\	de-	4dd\	sanc-
.	.	4d\	-i	4dd\	-ta
!	!	!LO:LB:g=original	!	!LO:LB:g=original	!
=22	=22	=22	=22	=22	=22
!LO:N:vis=xstem:cue	!	!	!	!	!
4A\]y	.	2e\	ge-	4cc#X\	De-
4G/	-cta	.	.	4cc#\	-i
4F/	De-	2f\	.	[>2dd\	ge-
4E/	-i	.	.	.	.
=23	=23	=23	=23	=23	=23
2.A\	ge-	2.e\	.	2dd\]	.
.	.	.	.	2cc#X\	-ni-
4A\	-ni-	4e\	-ni-	.	.
=24	=24	=24	=24	=24	=24
2A\	-trix	2f#X\	-trix	2dd\	-trix
2r	.	2r	.	2b\	ne
=25	=25	=25	=25	=25	=25
2r	.	1r	.	2cc\	ne
[>2c\	no-	.	.	2b\	de-
=26	=26	=26	=26	=26	=26
2c\]	.	2r	.	2.dd\	-spi-
2B\	-stras	[>2g\	no-	.	.
.	.	.	.	4dd\	-ti-
=27	=27	=27	=27	=27	=27
2c\	de-	2g\]	.	2g\	-as
2A\	-pre-	2fn\	-stras	2r	.
!LO:LB:g=original	!	!	!	!	!
=28	=28	=28	=28	=28	=28
4B\	-ca-	2.g\	De-	2r	.
4B\	-ti-	.	.	.	.
2c\	-o-	.	.	[>2cc\	no-
.	.	4e\	-pre-	.	.
=29	=29	=29	=29	=29	=29
1d	.	4f\	-ca-	2cc\]	.
.	.	4f\	-ti-	.	.
.	.	2f\	-o-	2b\	-stras
!	!	!	!	!LO:LB:g=original	!
=30	=30	=30	=30	=30	=30
1e	-nes	2e\	-nes	2.cc\	De-
.	.	2e\	ne	.	.
.	.	.	.	4cc\	-pre-
!	!	!LO:LB:g=original	!	!	!
=31	=31	=31	=31	=31	=31
!LO:N:vis=00	!	!	!	!	!
00r	.	2f\	ne	4a\	-ca-
.	.	.	.	4b\	-ti-
.	.	2d\	de-	[>2cc\	-o-
=32	=32	=32	=32	=32	=32
.	.	2.g\	-spi-	2cc\]	.
.	.	.	.	2b\	-nes
.	.	4g\	-ti-	.	.
=33	=33	=33	=33	=33	=33
.	.	2c\	-as	2cc\	ne
.	.	[>2g\	de-	2b\	ne
=34	=34	=34	=34	=34	=34
.	.	2g\]	.	2cc\	ne
.	.	2f#X\	-pre-	2a\	de-
=35	=35	=35	=35	=35	=35
2r	.	2.g\	-ca-	2.dd\	-spi-
2B\	ne	.	.	.	.
.	.	4g\	-ti-	4dd\	-ti-
=36	=36	=36	=36	=36	=36
2c\	ne	4e\	-o-	2g\	-as
.	.	4f#X\	.	.	.
2A\	de-	[>2g\	.	4cc\	ne
.	.	.	.	4b\	de-
=37	=37	=37	=37	=37	=37
2.d\	-spi-	2g\]	.	2.a\	-spi-
.	.	2f#X\	-nes	.	.
4d\	-ci-	.	.	4a\	-ti-
!	!	!	!	!LO:LB:g=original	!
=38	=38	=38	=38	=38	=38
2G/	-as	2g\	ne	2b\	-as
2G/	ne	2e\	de	[>2cc\	ne
!	!	!LO:LB:g=original	!	!	!
=39	=39	=39	=39	=39	=39
2A\	ne	2a\	ne	2cc\]	.
[>2c\	de-	2a\	de-	2ff\	de-
!LO:LB:g=original	!	!	!	!	!
=40	=40	=40	=40	=40	=40
!LO:TX:a:t=P:problem:brak zakończenia ligatury	!	!	!	!	!
2c\]	.	2.g\	-spi-	2.dd\	-spi-
4B\	-spi-	.	.	.	.
!	!	!LO:SIC:l:v:s=ti	!	!	!
4B\	-ci-	4fn\	-ci-	4dd\	-ti-
=41	=41	=41	=41	=41	=41
1c	-as	1e	-as	1cc	-as
=42	=42	=42	=42	=42	=42
2r	.	1e	.	1cc	.
[>2e\	in	.	.	.	.
=43	=43	=43	=43	=43	=43
!	!	!	!	!LO:N:vis=00	!
2e\]	.	1r	.	00r	.
2e\	ne-	.	.	.	.
=44	=44	=44	=44	=44	=44
!LO:SIC:l:v:s=ces	!	!	!	!	!
2c\	-ce-	2a\	in	.	.
2A\	-si-	2a\	ne-	.	.
=45	=45	=45	=45	=45	=45
!	!	!LO:SIC:l:v:s=ces	!	!	!
2B\	-ta-	2g\	-ce-	.	.
2c\	.	2e\	-si	.	.
=46	=46	=46	=46	=46	=46
4c\	.	2.fn\	ta-	.	.
4c\	-ti-	.	.	.	.
[>2B\	-bus	.	.	.	.
.	.	4f\	-ti-	.	.
=47	=47	=47	=47	=47	=47
2B\]	.	1e	-bus	2ee\	in
[>2A\	no-	.	.	2ee\	ne-
!LO:LB:g=original	!	!	!	!	!
=48	=48	=48	=48	=48	=48
!LO:TX:a:t=P:problem:brak zakończenia ligatury	!	!	!	!LO:SIC:l:v:s=ces	!
2A\]	.	1r	.	2dd\	-ce-
2G#X/	.	.	.	2b\	-si-
=49	=49	=49	=49	=49	=49
4A\	.	4e\	in	2.cc\	-ta-
4B\	.	4e\	ne-	.	.
!	!	!LO:LB:g=original	!	!	!
!	!	!LO:SIC:l:v:s=ces	!	!	!
4c\	.	4e\	-ce-	.	.
4d\	.	4e\	-si-	4b\	-ti-
=50	=50	=50	=50	=50	=50
2e\	.	4c\	-ta-	2a\	-bus
.	.	4B\	-ti-	.	.
4d\	.	2A/	-bus	[>2a\	no-
4c\	.	.	.	.	.
!	!	!	!	!LO:LB:g=original	!
=51	=51	=51	=51	=51	=51
!	!	!	!	!LO:TX:a:t=P:problem:brak zakończenia ligatury	!
1B	.	1e	no-	2a\]	.
.	.	.	.	2g#X\	.
=52	=52	=52	=52	=52	=52
1c#X	-stris	1e	-stris	1a	-stris
=53||	=53||	=53||	=53||	=53||	=53||
*M3/2	*	*M3/2	*	*M3/2	*
2c#X\	Sed	2e\	Sed	2a\	sed
2c#\	a	2e\	a	2a\	a
2c#\	pe-	2e\	pe-	2a\	pe-
=54	=54	=54	=54	=54	=54
2.d\	-ri-	2.f\	-ri-	2.a\	-ri-
4d\	-cu-	4f\	-cu-	4a\	-cu-
2d\	-lis	2f\	-lis	2a\	-lis
!LO:LB:g=original	!	!	!	!	!
=55	=55	=55	=55	=55	=55
1B	cunc-	1d	cunc-	1b	cunc-
2B\	-tis	2d\	-tis	2b\	-tis
=56	=56	=56	=56	=56	=56
2.c\	li-	2.e\	li-	2.ee\	li-
4c\	-be-	4e\	-be-	4ee\	-be-
!	!	!LO:LB:g=original	!	!	!
4d\	-ra	4g\	-ra	4dd\	-ra
4d\	nos	4g\	nos	4dd\	nos
=57	=57	=57	=57	=57	=57
1e	sem-	1g	sem-	1cc	sem-
2e\	-per	2g\	-per	2cc\	-per
!	!	!	!	!LO:LB:g=original	!
=58	=58	=58	=58	=58	=58
2r	.	2.g\	li-	2r	.
2e\	sem-	.	.	2cc\	sem-
.	.	4g\	-be-	.	.
2d\	-per	4g\	-ra	2b\	-per
.	.	4g\	nos	.	.
=59	=59	=59	=59	=59	=59
1e	sem-	1g	sem-	1cc	sem-
2d\	-per	2g\	-per	2b\	-per
=60	=60	=60	=60	=60	=60
2r	.	2r	.	2.ee\	li-
2c\	sem-	2e\	sem-	.	.
.	.	.	.	4ee\	-be-
2B\	-per	2e\	-per	4ee\	-ra
.	.	.	.	4ee\	nos
=61	=61	=61	=61	=61	=61
1A	sem-	1c	sem-	1ee	sem-
2G#X/	-per	2e\	-per	2ee\	-per
!LO:LB:g=original	!	!	!	!	!
=62	=62	=62	=62	=62	=62
2.c\	li-	2r	.	2r	.
.	.	2a\	sem-	2cc\	sem-
4c\	-be-	.	.	.	.
4c\	-ra	2g\	-per	2ee\	-per
4c\	nos	.	.	.	.
!	!	!LO:LB:g=original	!	!	!
=63	=63	=63	=63	=63	=63
1c	sem-	1a	sem-	1cc	sem-
2c\	-per	2g\	-per	2cc\	-per
=64	=64	=64	=64	=64	=64
2.c\	Vir-	1.r	.	2.gg\	li-
4c\	-go	.	.	4gg\	-be-
4B\	glo-	.	.	4gg\	-ra
4A\	-ri-	.	.	4gg\	nos
!	!	!	!	!LO:LB:g=original	!
=65	=65	=65	=65	=65	=65
4G/	-o-	2.g\	li-	2gg\	sem-
4F#X/	.	.	.	.	.
4G/	.	.	.	1gg	-per
4A/	.	4g\	-be-	.	.
4B\	.	4f\	-ra	.	.
4c\	.	4e\	nos	.	.
=66	=66	=66	=66	=66	=66
1d	.	2.d\	Vir-	2.dd\	li-
.	.	4e\	-go	4dd\	-be-
2d\	-sa	4f\	glo-	4dd\	-ra
.	.	4g\	-ri-	4dd\	nos
=67	=67	=67	=67	=67	=67
2.f\	vir-	2.a\	-o-	1dd	sem-
4f\	-go	4a\	-sa	.	.
!LO:LB:g=original	!	!	!	!	!
4e\	glo-	4g\	glo-	2dd\	-per
4d\	-ri-	4f\	-ri-	.	.
=68	=68	=68	=68	=68	=68
!	!	!	!	!LO:TX:a:t=2	!
!	!	!	!	!LO:N:vis=0	!
2c#X\	-o-	2e\	-o-	0.r	.
4c#\	-sa	2e\	-sa	.	.
4c#\	et	.	.	.	.
[>2d\	be-	2g\	et	.	.
=69	=69	=69	=69	=69	=69
4.d\]	.	2d\	be-	.	.
8d\	ne-	.	.	.	.
!	!	!LO:LB:g=original	!	!	!
2d\	-dic-	2f\	-ne-	.	.
2c#X\	.	2e\	-dic-	.	.
=70	=70	=70	=70	=70	=70
1d	-ta	1f	ta	2.dd\	vir-
.	.	.	.	4dd\	-go
2r	.	2r	.	4cc\	glo-
.	.	.	.	4b\	-ri-
=71	=71	=71	=71	=71	=71
1.r	.	2.f\	Vir-	2.a\	-o-
.	.	4f\	-go	4b\	.
.	.	4e\	glo-	4cc\	.
.	.	4d\	-ri-	4dd\	-sa
=72	=72	=72	=72	=72	=72
2.cn\	Vir-	2a\	-o-	2.ee\	vir-
.	.	2a\	-sa	.	.
4c\	-go	.	.	4ee\	-go
!	!	!	!	!LO:LB:g=original	!
4B\	glo-	2e\	et	4dd\	glo-
4A\	-ri-	.	.	4cc\	-ri-
!LO:LB:g=original	!	!	!	!	!
=73	=73	=73	=73	=73	=73
2G#X/	-o-	1e	be-	2b\	-o-
4G#/	-sa	.	.	2b\	-sa
4G#/	et	.	.	.	.
!LO:TX:t=P:problem:2.	!	!	!	!	!
[y2A\	be-	[>2d\	-ne-	2dd\	et
=74	=74	=74	=74	=74	=74
!LO:N:vis=xstem:cue	!	!	!	!	!
4A\]y	.	2d\]	.	2a\	be-
4A\	-ne-	.	.	.	.
2A\	dic-	1e	-dic-	2cc\	-ne-
2G#X/	.	.	.	2b\	-dic-
=75	=75	=75	=75	=75	=75
2A\	-ta	2e\	-ta	2cc#X\	-ta
2c\	be-	2e\	be-	2a\	be-
!	!	!LO:LB:g=original	!	!	!
2B\	-ne-	2e\	-ne-	2e/	-ne-
=76	=76	=76	=76	=76	=76
1.c	-dic-	1.e	-dic-	1.a	-dic-
=77	=77	=77	=77	=77	=77
0B;>	-ta.	0e	-ta.	0g#X;>	-ta.
==	==	==	==	==	==
*-	*-	*-	*-	*-	*-
!!!system-decoration: [(s1,s2,s3)]
!!!RDF**kern: > = above
!!!RDF**kern: < = below
!!!EED: Mateusz Mrugas
!!!EST: 2021-02-13
!!!AIN: 1 alto 1 soprn 1 tenor
!!!ENC: Kamil Watkowski
!!!END: 2021-02-11
